!!!ONB: MCCC : IJH0405_03 : Extracted Monophonic Melody
!!!COM: Haydn, Joseph
!!!OPR: String Quartet in B-flat major
!!!OMV: 3
!!!SCT: Hob.III:1 ; Op.1 No.1
!!!ODT: 1757///
**kern
*thru
*k[b-e-a-]
*E-:
*clefF
*M4/4
2a-
=1
4a-
4g
2cc
=2
2b-
4b-
4a-
=3
2g
2r
=4
4bb-
8gg
8ee-
8.dd
32ee-
32ff
4ee-
=5
4ccc
16bb-
16aa-
16gg
16ff
4bb-
8eee-
8g
=6
4b-
4a-
4g
4r
=7
4ee-
8gg
8bb-
8bb-
32bb-
32aa
32bb-
32ccc
8ddd
8r
=8
4ee-
16eee-
16ccc
16aa
16ee-
4ee-
4dd
=9
4ff
8bb-
8aa-
16gg
16gg
16ff#
16gg
16r
16bb-
16aa
16bb-
=10
16r
16eee-
16ddd
16eee-
4ggg
16r
16ff
16ee
16ff
16r
16bb-
16aa
16bb-
=11
16r
16ddd
16ccc
16ddd
8fff
8.r
16ee-
16dd
16ee-
16r
16gg
16ff
16ee-
=12
16r
16dd
16cc#
16dd
16r
16ff
16ee-
16dd
16r
16cc
16b
16cc
8.gg
16b-
=13
4b-
4a
2e-
=14
4d
4bb-
4c
4eee-
=15
8ddd
32fff
32ddd
32ccc
32bb-
4ccc
4bb-
8.gg
16aa
=16
16bb-
16ff
16ee-
16dd
8.gg
16aa
16bb-
16ff
16dd
16b-
4cc
=17
4b-
2.r
=18
4ff
8dd
8b-
8.a
32b-
32cc
4b-
=19
16aa-
16ff
16dd
16b-
16a-
16f
16d
16A-
4A-
4G
=20
4dd-
8dd-
8dd-
4bb-
4e-
=21
8.ddd-
16bb-
8.fff
16ddd-
4ddd-
8ccc
8r
=22
4ccc
8A-
8ccc
4bb-
8G
8bb-
=23
8.b-
48dd
48cc
48b-
8aa-
8gg
8ff
4.r
=24
4ee-
8gg
8bb-
8.bb-
48ccc
48bb-
48aa
4bb-
=25
8eee-
8aa-
8aa-
8aa-
4aa-
4gg
=26
4ccc
8aa-
8ff
4bb-
8gg
8ee-
=27
24dd
24ee-
24ff
8a-[
8a-]
8g
4f
4r
=28
4bb-
8ee-
8ddd-
16ccc
16ccc
16bb
16ccc
16r
16aa-
16gg
16aa-
=29
16r
16ee-
16dd
16ee-
16r
16cc
16b-
16a-
16r
16bb-
16aa
16bb-
16r
16gg
16ff#
16gg
=30
16r
16ee-
16dd
16ee-
16r
16b-
16a-
16g
16r
16aa-
16gg
16aa-
16r
16ccc
16bb-
16aa-
=31
16r
16gg
16ff#
16gg
16r
16bb-
16aa-
16gg
16r
16ff
16ee
16ff
8.ccc
16ee-
=32
4ee-
4dd
2A-
=33
4G
4ee-
4f
4aa-
=34
8gg
32bb-
32gg
32ff
32ee-
4ff
4ee-
8.ccc
16ddd
=35
16eee-
16bb-
16aa-
16gg
8.ccc
16ddd
16eee-
16bb-
16gg
16ee-
4ff
=36
4ee-
4r
2a-[
=37
4a-]
4g
2cc
=38
2b-
4b-
4a-
=39
16g
16g
16a-
16b-
16cc
16dd
16ee-
16ff
8gg
8r
32ff
16.ee-
32dd
16.cc
=40
4b-
4a-
8g
8e-
8f
8d
=41
8e-
8r
8e-
8r
4e-
4r
==
*-
